X: 578
T: the Fair Maid of Cavan   #2
T: an aindear \.deas ua ca\.bain
R: march, air
%S: s:2 b:16(8++8)
B: O'Neill's 1850 #578
O: Ryan
Z: J.B. Walsh walsh@math.ubc.ca
N: Compacted by making the B part a repeat, dropping slurs and emphases. [JC]
P: Play AA BB A
Q: Slow."
M: 2/4
L: 1/8
K: D
"^A"[|] AF | DE FG | AB cA | d3 c | A2 AG | F3 G | A2 AG | F2 D2 | D2 Hx :|
"^B"|: de | f2 d2 | f2 e2 | d3 c/B/ | A2 FE | DE FG | AB cA | d4- | d2 "D.C."y:|
